src/assets/duotone/Element2.svg

<?xml version="1.0" encoding="UTF-8"?>
<svg width="24" height="24" viewBox="0 0 24 24" xmlns="http://www.w3.org/2000/svg">
 <path d="M11 19.9V4.1C11 2.6 10.36 2 8.77 2H4.73C3.14 2 2.5 2.6 2.5 4.1V19.9C2.5 21.4 3.14 22 4.73 22H8.77C10.36 22 11 21.4 11 19.9Z"/>
 <path d="m21.5 19.64v-4.28c0-1.3-1-2.36-2.23-2.36h-4.04c-1.23 0-2.23 1.06-2.23 2.36v4.28c0 1.3 1 2.36 2.23 2.36h4.04c1.23 0 2.23-1.06 2.23-2.36z" opacity=".4"/>
 <path d="M21.5 8.64V4.36C21.5 3.06 20.5 2 19.27 2H15.23C14 2 13 3.06 13 4.36V8.64C13 9.94 14 11 15.23 11H19.27C20.5 11 21.5 9.94 21.5 8.64Z" opacity=".4"/>
</svg>

<svg width="24" height="24" viewBox="0 0 24 24"  xmlns="http://www.w3.org/2000/svg">
<path d="M11 19.9V4.1C11 2.6 10.36 2 8.77 2H4.73C3.14 2 2.5 2.6 2.5 4.1V19.9C2.5 21.4 3.14 22 4.73 22H8.77C10.36 22 11 21.4 11 19.9Z" />
<path opacity="0.4" d="M21.5 19.64V15.36C21.5 14.06 20.5 13 19.27 13H15.23C14 13 13 14.06 13 15.36V19.64C13 20.94 14 22 15.23 22H19.27C20.5 22 21.5 20.94 21.5 19.64Z" />
<path opacity="0.4" d="M21.5 8.64V4.36C21.5 3.06 20.5 2 19.27 2H15.23C14 2 13 3.06 13 4.36V8.64C13 9.94 14 11 15.23 11H19.27C20.5 11 21.5 9.94 21.5 8.64Z" />
</svg>
